flaticon/coffee-shop/frappe-3.svg

<svg xmlns="http://www.w3.org/2000/svg" width="32" height="32" viewBox="0 0 24 24">
    <path d="M 18.875 12.527344 L 19.320312 3.253906 C 19.320312 3.171875 19.28125 3.050781 19.199219 2.96875 C 19.117188 2.886719 19.039062 2.847656 18.914062 2.847656 L 17.65625 2.847656 C 17.46875 1.824219 16.578125 1.054688 15.5 1.015625 C 15.089844 0.367188 14.398438 0 13.628906 0 C 12.855469 0 12.164062 0.367188 11.757812 1.015625 C 10.675781 1.054688 9.785156 1.824219 9.597656 2.847656 L 8.339844 2.847656 C 8.21875 2.847656 8.136719 2.886719 8.054688 2.96875 C 7.972656 3.050781 7.933594 3.132812 7.933594 3.253906 L 8.011719 4.960938 C 6.101562 5.289062 4.679688 6.996094 4.679688 8.949219 C 4.679688 11.0625 6.304688 12.8125 8.378906 13.015625 C 8.703125 14.601562 10.007812 15.863281 11.59375 16.191406 L 11.59375 16.757812 C 11.105469 16.921875 10.78125 17.371094 10.78125 17.898438 C 10.78125 18.425781 11.105469 18.875 11.59375 19.039062 L 11.59375 20.21875 L 11.550781 20.296875 C 11.144531 20.910156 10.578125 21.398438 9.882812 21.679688 L 8.910156 22.089844 C 8.339844 22.332031 7.933594 22.941406 7.933594 23.59375 C 7.933594 23.835938 8.09375 24 8.339844 24 L 18.101562 24 C 18.347656 24 18.507812 23.835938 18.507812 23.59375 C 18.507812 22.941406 18.101562 22.332031 17.53125 22.046875 L 16.554688 21.640625 C 15.863281 21.355469 15.292969 20.867188 14.886719 20.257812 L 14.847656 20.175781 L 14.847656 19.402344 C 15.335938 19.242188 15.660156 18.792969 15.660156 18.265625 C 15.660156 17.734375 15.335938 17.289062 14.847656 17.125 L 14.847656 16.230469 C 16.921875 16.191406 18.628906 14.644531 18.875 12.527344 Z M 11.664062 5.488281 C 11.695312 5.492188 11.726562 5.492188 11.757812 5.492188 C 11.832031 5.613281 11.917969 5.726562 12.011719 5.828125 C 12.046875 5.859375 12.078125 5.894531 12.109375 5.925781 C 12.179688 5.988281 12.25 6.046875 12.324219 6.097656 C 12.691406 6.367188 13.144531 6.507812 13.628906 6.507812 C 13.632812 6.507812 13.640625 6.507812 13.648438 6.507812 C 13.652344 6.507812 13.660156 6.507812 13.667969 6.507812 C 14.441406 6.507812 15.132812 6.140625 15.539062 5.492188 C 15.972656 5.492188 16.375 5.355469 16.71875 5.125 L 16.433594 12.324219 C 16.351562 13.140625 15.621094 13.789062 14.765625 13.789062 L 12.488281 13.789062 C 11.632812 13.789062 10.941406 13.179688 10.820312 12.367188 L 10.535156 5.113281 C 10.863281 5.335938 11.246094 5.472656 11.664062 5.488281 Z M 11.796875 1.832031 C 11.835938 1.832031 11.835938 1.832031 11.878906 1.832031 L 11.960938 1.832031 C 12.121094 1.832031 12.285156 1.75 12.367188 1.585938 C 12.609375 1.097656 13.097656 0.773438 13.628906 0.773438 C 14.15625 0.773438 14.644531 1.097656 14.886719 1.585938 C 14.96875 1.75 15.132812 1.832031 15.296875 1.832031 L 15.375 1.832031 C 15.417969 1.832031 15.417969 1.832031 15.457031 1.832031 C 16.089844 1.832031 16.640625 2.265625 16.820312 2.847656 L 16.066406 2.847656 C 15.824219 2.847656 15.660156 3.011719 15.660156 3.253906 C 15.660156 3.5 15.824219 3.660156 16.066406 3.660156 L 16.816406 3.660156 C 16.8125 3.675781 16.804688 3.6875 16.800781 3.703125 C 16.597656 4.269531 16.066406 4.636719 15.457031 4.636719 C 15.417969 4.636719 15.417969 4.636719 15.375 4.636719 L 15.292969 4.636719 C 15.132812 4.636719 14.96875 4.71875 14.886719 4.882812 C 14.644531 5.371094 14.15625 5.695312 13.628906 5.695312 C 13.097656 5.695312 12.609375 5.371094 12.367188 4.882812 C 12.285156 4.71875 12.121094 4.636719 11.960938 4.636719 L 11.878906 4.636719 C 11.835938 4.636719 11.835938 4.636719 11.796875 4.636719 C 11.1875 4.636719 10.65625 4.269531 10.453125 3.703125 C 10.449219 3.6875 10.445312 3.675781 10.441406 3.660156 L 13.21875 3.660156 C 13.464844 3.660156 13.628906 3.5 13.628906 3.253906 C 13.628906 3.011719 13.464844 2.847656 13.21875 2.847656 L 10.433594 2.847656 C 10.613281 2.265625 11.164062 1.832031 11.796875 1.832031 Z M 14.765625 15.457031 L 14.441406 15.457031 C 14.195312 15.457031 14.035156 15.621094 14.035156 15.863281 L 14.035156 17.085938 L 13.628906 17.085938 C 13.382812 17.085938 13.21875 17.246094 13.21875 17.492188 C 13.21875 17.734375 13.382812 17.898438 13.628906 17.898438 L 14.441406 17.898438 C 14.683594 17.898438 14.847656 18.0625 14.847656 18.304688 C 14.847656 18.550781 14.683594 18.710938 14.441406 18.710938 C 14.195312 18.710938 14.035156 18.875 14.035156 19.117188 L 14.035156 20.339844 C 14.035156 20.421875 14.074219 20.5 14.117188 20.542969 L 14.238281 20.746094 C 14.726562 21.476562 15.417969 22.046875 16.230469 22.414062 L 17.207031 22.820312 C 17.371094 22.902344 17.53125 23.023438 17.613281 23.1875 L 8.867188 23.1875 C 8.949219 23.023438 9.070312 22.902344 9.234375 22.820312 L 10.210938 22.414062 C 11.023438 22.046875 11.714844 21.476562 12.203125 20.746094 L 12.324219 20.582031 C 12.367188 20.5 12.40625 20.421875 12.40625 20.339844 L 12.40625 19.117188 L 12.8125 19.117188 C 13.058594 19.117188 13.21875 18.957031 13.21875 18.710938 C 13.21875 18.46875 13.058594 18.304688 12.8125 18.304688 L 12 18.304688 C 11.757812 18.304688 11.59375 18.140625 11.59375 17.898438 C 11.59375 17.652344 11.757812 17.492188 12 17.492188 C 12.242188 17.492188 12.40625 17.328125 12.40625 17.085938 L 12.40625 16.269531 L 12.8125 16.269531 C 13.058594 16.269531 13.21875 16.109375 13.21875 15.863281 C 13.21875 15.621094 13.058594 15.457031 12.8125 15.457031 L 12.488281 15.457031 C 10.78125 15.457031 9.355469 14.238281 9.152344 12.570312 C 9.113281 12.367188 8.949219 12.203125 8.746094 12.203125 C 6.957031 12.203125 5.492188 10.738281 5.492188 8.949219 C 5.492188 7.28125 6.792969 5.859375 8.460938 5.695312 C 8.664062 5.695312 8.828125 5.492188 8.828125 5.289062 L 8.746094 3.660156 L 9.597656 3.660156 C 9.617188 3.777344 9.648438 3.890625 9.6875 4 L 10.007812 12.449219 C 10.167969 13.707031 11.226562 14.644531 12.488281 14.644531 L 14.765625 14.644531 C 16.027344 14.644531 17.085938 13.707031 17.246094 12.40625 L 17.5625 4.085938 C 17.621094 3.949219 17.664062 3.808594 17.695312 3.660156 L 18.507812 3.660156 L 18.0625 12.488281 C 17.898438 14.195312 16.472656 15.457031 14.765625 15.457031 Z M 14.765625 15.457031"/>
    <path d="M 8.785156 6.628906 C 8.703125 6.589844 8.582031 6.550781 8.460938 6.550781 C 7.242188 6.671875 6.304688 7.730469 6.304688 8.949219 C 6.304688 10.25 7.363281 11.347656 8.707031 11.390625 C 8.828125 11.390625 8.910156 11.347656 9.03125 11.226562 C 9.113281 11.144531 9.152344 11.0625 9.152344 10.941406 L 8.949219 6.914062 C 8.910156 6.792969 8.867188 6.710938 8.785156 6.628906 Z M 7.117188 8.949219 C 7.117188 8.296875 7.527344 7.6875 8.136719 7.445312 L 8.296875 10.496094 C 7.605469 10.292969 7.117188 9.679688 7.117188 8.949219 Z M 7.117188 8.949219"/>
</svg>

<svg xmlns="http://www.w3.org/2000/svg" width="32" height="32" viewBox="0 0 24 24">
    <path d="M18.875 12.527l.445-9.273a.435.435 0 0 0-.12-.285.364.364 0 0 0-.286-.121h-1.258c-.187-1.024-1.078-1.793-2.156-1.832A2.177 2.177 0 0 0 13.629 0c-.774 0-1.465.367-1.871 1.016-1.082.039-1.973.808-2.16 1.832H8.34a.37.37 0 0 0-.285.12.37.37 0 0 0-.121.286l.078 1.707c-1.91.328-3.332 2.035-3.332 3.988 0 2.114 1.625 3.864 3.699 4.067.324 1.586 1.629 2.847 3.215 3.175v.567a1.188 1.188 0 0 0-.813 1.14c0 .528.324.977.813 1.141v1.18l-.043.078a3.638 3.638 0 0 1-1.668 1.383l-.973.41c-.57.242-.976.851-.976 1.504 0 .242.16.406.406.406h9.762c.246 0 .406-.164.406-.406 0-.653-.406-1.262-.977-1.547l-.976-.406a3.706 3.706 0 0 1-1.668-1.383l-.04-.082v-.774c.489-.16.813-.609.813-1.136 0-.532-.324-.977-.812-1.141v-.895c2.074-.039 3.78-1.585 4.027-3.703zm-7.21-7.039a.753.753 0 0 0 .093.004c.074.121.16.235.254.336.035.031.066.067.097.098.07.062.141.12.215.172.367.27.82.41 1.305.41h.039c.773 0 1.465-.367 1.871-1.016.434 0 .836-.137 1.18-.367l-.285 7.2c-.082.816-.813 1.464-1.668 1.464h-2.278c-.855 0-1.547-.61-1.668-1.422l-.285-7.254c.328.223.711.36 1.13.375zm.132-3.656h.164a.45.45 0 0 0 .406-.246c.242-.488.73-.813 1.262-.813.527 0 1.016.325 1.258.813a.451.451 0 0 0 .41.246h.16c.633 0 1.184.434 1.363 1.016h-.754a.385.385 0 0 0-.406.406c0 .246.164.406.406.406h.75c-.003.016-.011.027-.015.043a1.411 1.411 0 0 1-1.344.934h-.164a.45.45 0 0 0-.406.246c-.242.488-.73.812-1.258.812-.531 0-1.02-.324-1.262-.812a.45.45 0 0 0-.406-.246h-.164c-.61 0-1.14-.367-1.344-.934l-.012-.043h2.778c.246 0 .41-.16.41-.406 0-.242-.164-.406-.41-.406h-2.785c.18-.582.73-1.016 1.363-1.016zm2.969 13.625h-.325c-.246 0-.406.164-.406.406v1.223h-.406c-.246 0-.41.16-.41.406 0 .242.164.406.41.406h.812c.243 0 .407.165.407.407 0 .246-.164.406-.407.406-.246 0-.406.164-.406.406v1.223c0 .082.04.16.082.203l.121.203c.489.73 1.18 1.3 1.992 1.668l.977.406c.164.082.324.203.406.367H8.867a.797.797 0 0 1 .367-.367l.977-.406a4.715 4.715 0 0 0 1.992-1.668l.121-.164a.542.542 0 0 0 .082-.242v-1.223h.406c.247 0 .407-.16.407-.406 0-.242-.16-.406-.406-.406H12a.385.385 0 0 1-.406-.407c0-.246.164-.406.406-.406a.385.385 0 0 0 .406-.406v-.816h.406c.247 0 .407-.16.407-.407 0-.242-.16-.406-.406-.406h-.325c-1.707 0-3.133-1.219-3.336-2.887-.039-.203-.203-.367-.406-.367A3.264 3.264 0 0 1 5.492 8.95c0-1.668 1.301-3.09 2.969-3.254.203 0 .367-.203.367-.406L8.746 3.66h.852c.02.117.05.23.09.34l.32 8.45a2.501 2.501 0 0 0 2.48 2.195h2.278c1.261 0 2.32-.938 2.48-2.239l.317-8.32c.058-.137.101-.277.132-.426h.813l-.445 8.828c-.165 1.707-1.59 2.969-3.297 2.969zm0 0"/>
    <path d="M8.785 6.629a.792.792 0 0 0-.324-.078c-1.219.12-2.156 1.18-2.156 2.398 0 1.301 1.058 2.399 2.402 2.442.121 0 .203-.043.324-.164a.37.37 0 0 0 .121-.286L8.95 6.914a.646.646 0 0 0-.164-.285zm-1.668 2.32c0-.652.41-1.261 1.02-1.504l.16 3.051c-.692-.203-1.18-.816-1.18-1.547zm0 0"/>
</svg>
